modules/hawcons-stroke/icons/icon-144-box-bookmark.svg

<svg width="32" height="32" xmlns="http://www.w3.org/2000/svg"><path d="M24 14h3v14H6V14h12v9l3-3 3 3v-9zM5 14v15h23V14h2V6H3v8h2zM4 7v6h25V7H4zm15 7v6.6l2-2 2 2V14h-4z" fill="#929292" fill-rule="evenodd"/></svg>

<?xml version="1.0" encoding="UTF-8" standalone="no"?>
<svg width="32px" height="32px" viewBox="0 0 32 32" version="1.1" xmlns="http://www.w3.org/2000/svg" xmlns:xlink="http://www.w3.org/1999/xlink" xmlns:sketch="http://www.bohemiancoding.com/sketch/ns">
    <!-- Generator: Sketch 3.0.3 (7891) - http://www.bohemiancoding.com/sketch -->
    <title>icon 144 box bookmark</title>
    <desc>Created with Sketch.</desc>
    <defs></defs>
    <g id="Page-1" stroke="none" stroke-width="1" fill="none" fill-rule="evenodd" sketch:type="MSPage">
        <g id="icon-144-box-bookmark" sketch:type="MSArtboardGroup" fill="#929292">
            <path d="M24,14 L27,14 L27,28 L6,28 L6,14 L18,14 L18,23 L21,20 L24,23 L24,14 L24,14 Z M5,14 L5,29 L28,29 L28,14 L30,14 L30,6 L3,6 L3,14 L5,14 L5,14 Z M4,7 L4,13 L29,13 L29,7 L4,7 L4,7 Z M19,14 L19,20.5999756 L21,18.5999756 L23,20.5999756 L23,14 L19,14 L19,14 Z" id="box-bookmark" sketch:type="MSShapeGroup"></path>
        </g>
    </g>
</svg>
